X:1
T:A minor James P. Carrell, 1821
T:Isaac Watts, 1717 (Psalm 42, Part 1)               86. 86. (C. M.)
T:Devizes
T:Transcribed from Songs of Zion, 1821
%%score [ 1 2 3 4 ]
L:1/8
Q:1/4=140
M:2/2
K:C
V:1 treble nm="Tr." snm="Tr."
V:2 treble nm="C." snm="C."
V:3 treble-8 nm="T." snm="T."
V:4 bass nm="B." snm="B."
V:1
"^1. With earnest longings of the mind,  My God, to thee I   look;    So     pants  the  hunted   hart  to  find    And  taste  the  coo – ling    brook." A4 | %1
 e3 d c2 B2 | A2 AB c4 | e4 c2 c2 | d2 c2 B4 | (A3 B) A2 A2 | G2 c2 d2 df | e4 g4 | e2 cB A2 G2 | %9
 A8 |: %10
"^1. When shall I see thy courts of  grace, and meet my God again?   So    long   an  absence   from  thy   face     My heart endures  with pain." d4 c2 c2 | %11
 B2 B2 G2 G2 | c4 d4 | e2 d2 c2 AB | c4 (G3 A) | c2 g2 e2 e2 | e2 ed c4 | G4 A2 AB | c4 B4 | c8 :| %20
V:2
"^2. Temptations  vex  my  weary  soul,   And tears are my repast;  The   foe   in–sults   with–out  con–trol,  \"And  where's  your God at  last?\"" A4 | %1
 E3 G A2 B2 | A2 AG E4 | C4 E2 E2 | G2 E2 G4 | E4 A2 A2 | B2 c2 A2 GE | G4 G4 | A2 GF E2 G2 | A8 |: %10
"^2. 'Tis with a mournful pleasure  now  I   think  on  ancient  days;  Then  to  thy house did   num–bers   go,    And all  our  work was praise." G4 G2 G2 | %11
 E2 E2 G2 GA | E4 G4 | A2 B2 c2 AG | A4 (G3 F) | E2 E2 E2 E2 | C2 CD E4 | G4 A2 AB | A4 G4 | A8 :| %20
V:3
"^3. But why, my soul, sunk down so far  Beneath this heavy load?  Why do my thoughts indulge despair,  And  sin  a  –  gainst   my     God?" A4 | %1
 A3 B c2 d2 | e2 AG A4 | c4 e2 e2 | g2 cd e4 | (e3 d) c2 c2 | d3 c A2 GA | c4 G4 | A2 cd e>d cB | %9
 A8 |: %10
"^3. Hope in the Lord, whose mighty  hand  Can all thy woes  remove, For   I  shall  yet  before   him  stand,   And sing  re – sto – ring   love." d4 e2 e2 | %11
 g2 ge d2 cd | e4 d4 | e2 g2 g2 ag | e4 (d3 c) | A2 GA c2 e2 | g2 ed e4 | d4 c2 AG | E4 G4 | A8 :| %20
V:4
 A,4 | A,3 E, F,2 D,2 | E,2 E,2 A,,4 | C4 A,2 A,2 | G,2 A,G, E,4 | C,4 C,2 C,2 | %6
 G,2 E,C, D,2 G,F, | E,4 E,4 | C,2 D,2 E,2 E,2 | A,,8 |: G,4 E,2 E,2 | G,2 G,2 G,2 CB, | A,4 G,4 | %13
 E,2 D,2 C,2 A,,2 | E,4 (D,3 E,) | C,2 D,C, A,,2 A,2 | G,2 A,2 E,4 | G,4 E,2 C,D, | E,4 E,4 | %19
 A,,8 :| %20

